svg/UnitedNationsOCHA-Humanitarian/food_NFI_relief_goods_icon_box.svg

<svg xmlns="http://www.w3.org/2000/svg" viewBox="0 0 32 32" enable-background="new 0 0 32 32"><path fill="#407cca" d="m25.6 0h-19.2c-3.52 0-6.4 2.88-6.4 6.4v19.2c0 3.52 2.88 6.4 6.4 6.4h19.2c3.521 0 6.4-2.88 6.4-6.4v-19.2c0-3.52-2.88-6.4-6.4-6.4m2.361 14.69l-3.896 2.093v5.204l-8.07 4.02-8.07-4.02v-5.22l-3.863-2.077 3.864-2.104v-.003h.003l.038-.019-3.122-1.734-.852-.48 8.01-4.355 4.045 2.202 3.938-2.148 7.146 3.894.865.466-3.916 2.175 3.877 2.106m-8.119 4.36l3.146-1.688v3.955l-6.445 3.208v-7.31l3.299 1.835m2.984-5.925l2.863 1.558-5.836 3.135-2.802-1.541 5.775-3.152m-10.648 5.925l3.281-1.821v7.298l-6.445-3.209v-3.968l3.164 1.7m-.009-1.233l-5.834-3.131 2.858-1.561 5.826 3.151-2.85 1.541m7.82-10.539l5.769 3.139-2.792 1.553-5.835-3.133 2.858-1.559m-10.961 4.636l-2.791-1.553 5.769-3.139 2.859 1.557-5.837 3.135"/></svg>

<?xml version="1.0" encoding="utf-8"?>
<!-- Generator: Adobe Illustrator 16.0.3, SVG Export Plug-In . SVG Version: 6.00 Build 0)  -->
<!DOCTYPE svg PUBLIC "-//W3C//DTD SVG 1.1//EN" "http://www.w3.org/Graphics/SVG/1.1/DTD/svg11.dtd">
<svg version="1.1" id="Layer_1" xmlns="http://www.w3.org/2000/svg" xmlns:xlink="http://www.w3.org/1999/xlink" x="0px" y="0px"
	 width="32px" height="32px" viewBox="0 0 32 32" enable-background="new 0 0 32 32" xml:space="preserve">
<path fill="#407CCA" d="M25.6,0H6.4C2.88,0,0,2.88,0,6.4v19.2C0,29.12,2.88,32,6.4,32h19.2c3.521,0,6.4-2.88,6.4-6.4V6.4
	C32,2.88,29.12,0,25.6,0z M27.961,14.69l-3.896,2.093v5.204l-8.067,4.018l-8.066-4.018v-5.22L4.069,14.69l3.864-2.104v-0.003h0.003
	l0.038-0.019L4.852,10.83L4,10.35l8.006-4.355l4.045,2.202l3.938-2.148l7.146,3.894L28,10.409l-3.916,2.175L27.961,14.69z
	 M19.842,19.05l3.146-1.688v3.955l-6.445,3.208v-7.31L19.842,19.05z M22.826,13.125l2.863,1.558l-5.836,3.135l-2.802-1.541
	L22.826,13.125z M12.178,19.05l3.281-1.821v7.298l-6.445-3.209V17.35L12.178,19.05z M12.169,17.817l-5.834-3.131l2.858-1.561
	l5.826,3.151L12.169,17.817z M19.989,7.278l5.769,3.139l-2.792,1.553l-5.835-3.133L19.989,7.278z M9.028,11.914l-2.791-1.553
	l5.769-3.139l2.859,1.557L9.028,11.914z"/>
</svg>
